X:1
T:Si leal amour
T:Si leal amour
T:Josquin Baston
C:Josquin Baston
%%score [ 1 2 [ 3 4 ] ]
L:1/8
Q:1/4=80
M:2/2
K:F
V:1 treble nm="Superius" snm="S"
V:2 treble nm="Altus" snm="A"
V:3 treble-8 nm="Tenor 1" snm="T 1"
V:4 treble-8 nm="Tenor 2" snm="T 2"
V:1
 z8 | z4 d4- | d2 B2 c2 e2 | d2 d2 f3 e | dc d4 d2 | cBAG A3 G/A/ |"^b" BcdB e2 c2 | d4 z2 d2 | %8
w: |Si|_ loy- al a-|mour me peult _|_ _ _ se-|cours _ _ _ _ _ _|_ _ _ _ _ don-|ner, me|
 g2 g2 f3 e | dcBA B2 A2- | AG G4 F2 | G4 z4 | z2 d2 f2 f2 | e2 d2 c2 c2 | B2 B3 AFG | A3 B cdec | %16
w: peult se- cours _|_ _ _ _ _ _|* * * don-|ner,|j'ay bon es-|poir d'a- voir al-|le- gean- * * *||
 d2 e3 d d2- | d2 c2 d4 | z2 G2 B2 B2 |: A4 z4 | z8 |"^b" z2 d2 e2 e2 | d2 d2 B2 c2 | %23
w: |* * ce|du mal que|jay,||du mal que|j'ay pour vous ma|
"^b" d3 e d2 c2- | cB B4 A2 | B8 | z8 | z4 e4 | c2 d2 G2 G2 | c3 B A2 G2 | A4 G2 G2- | G2 c4 B2 | %32
w: da- * * me'ay-||mer,||le|cueur loy- al di-|gn'est de re- com-|pen- ce, di-|* gn'est de|
 B2 c3 BAG | FD G4 F2 | G8 |1 z2 G2 B2 B2 :|2 G8- || G8- | G8- | G8 |] %40
w: re- com- * * *|* * pen- *|ce,|du mal que|ce.|_|||
V:2
 z8 | z8 | z8 | A6 F2 | G2 B2 A2 B2 | A2 G2 G2 F2 | G2 D2 G2 G2 | F3 E DC D2 | CB,A,G, A,4 | %9
w: |||Si loy-|al a- mour me|peult se- cours don-|ner, me peult se-|cours _ _ _ _|don- * * * ner,|
 z2 D2 G2 D2 |"^b" D2 E2 D4- | D2 G2 B2 B2 | A2 G2 FG A2- | AG F2 E2 A2 | F2 G2 F2 ED | E2 F2 E4 | %16
w: me peult se-|cours don- ner,|_ j'ay bon es-|poir d'a- voir _ al-|* * * le- gean-|||
 D2 B4 G2 | A4 z2 D2 |"^b""^b" E2 E2 D4- |: D2 D2 B,2 C2 |"^b" D3 E D2 C2- | CB, B,4 A,2 | %22
w: |ce du|mal que j'ay|_ pour vous ma|da- * * *||
 B,2 G,2 G4- |"^b" G2 DE FD F2- |"^b""^b" F2 E2 F3 E | DC D2 B,4- | B,2 C2 D4 | z2 B2 G2 A2- | %28
w: ||||* me'ay- mer,|le cueur loy-|
 A2 D2 E3 E | E2 F3 D G2- | G2 F2 G2 B2 | G2 A4 D2 | D2 G3 F E2 | D2 C2 D4- | D4 z2 D2 |1 %35
w: * al di- gn'est|de re- com- pen-||* * ce,|di- gn'est de re-|com- pen- ce,|_ du|
 _E2 E2 D4- :|2 z2 _E2 C2 D2 || G,2 D2 G3 F |"^b""^b" E2 D2 E4 | D8 |] %40
w: mal que j'ay|le cueur loy-|al di- gn'est de|re- com- pen-|ce.|
V:3
 d6 B2 |"^b" c2 e2 d2 d2 |"^b" g3 f e2 c2 | d2 d2 d3 c | B2 G2 d4 | z4 d4- |"^b" d2 B2 c2 e2 | d8 | %8
w: Si loy-|al a- mour me|peult _ _ se-|cours don- ner, _|_ _ _|se-|* * cours don-|ner,|
 z2 G2 d3 c | BA B2 G2 A2 | B2 c2 A4 | G8 | z2 d2 d2 f2 | c2 d2 A2 A2 | B2 G2 B4 | A2 a2 a3 g | %16
w: me peult _|_ _ _ se- cours|_ _ don-|ner,|j'ay bon es-|poir d'a- voir al-|le- gean- *|ce, d'a- voir _|
 f2 g2 f2 ed | e4 d2 B2 | c2 c2 Bcde |: f2 d2 g2 g2 | f2 F2 B2 A2 | F4 z4 |"^b""^b" d4 e2 e2 | %23
w: _ al- le- * *|gean- ce du|mal que jay _ _ _|_ pour vous ma|da- me d'ay- *|mer,|du mal que|
 d2 d2 B2 c2 | d2 cB c2 c2 | B2 f4 d2 | e2 A2 A2 d2- | d2 B2 c3 B | A2 G2 c4 | A4 z4 | z8 | %31
w: j'ay pour vous ma|da- * * * me'ay-|mer, le cueur|loy- al di- gn'est|_ de re- *|* com- pen-|ce,||
 _e4 c2 d2 | G2 G2 c3 B | A2 G2 A4 | G2 B4 B2 |1 c4 Bcde :|2 G4 z2 G2 || d3 c B2 G2- | GA B2 c4 | %39
w: di- gn'est de|re- com- pen- *||ce, du mal|que j'ay _ _ _|ce, di-|gn'est de re- com-|* * * pen-|
"^-natural" B8 |] %40
w: ce.|
V:4
 z8 | z8 | z8 | z8 | d6 B2 |"^b" c2 e2 d2 D2 |"^#" G4 z4 | D6 B,2 | C2 _E2 D2 D2 | G6 F2 | %10
w: ||||Si loy-|al a- mour me|peult,|si loy-|al a- mour me|peult se-|
 G2 C2 D4 | z2 G2 G2 B2 | F2 G2 D4 | z8 | z2 d2 d2 f2 | c2 d2 A2 A2 | B2 G2 B4 |"^b" A4 z2 G2 | %18
w: cours don- ner|j'ay bon es-|poir d'a- voir,||j'ay bon es-|poir d'a- voir al-|le- * gean-|ce du|
 C2 C2 G4 |:"^b""^b" z2 D2 E2 E2 | D2 D2 B,2 C2 | D2 CB, C2 C2 | B,2 B2 G2 c2 | B2 B2 B2 A2 | %24
w: mal qu l'ay|pour vous ma|da- me'ay- mer, pour|vous ma _ da- me'aay-|mer, du mal que|j'ay pour vous ma|
 G4 F4 | B,4 z2 B2 | G2 A2 D2 D2 | F2 G2 C4 | z8 | z4 z2 e2 | c2 d2 G2 G2 | c3 B A2 G2- | GFED C4 | %33
w: da- me'ay-|mer, le|cueur loy- al,- le|cueur loy- al||di-|gn'est de re- com-|pen- * * *||
 D2 E2 D4 | G4 z2 G2 |1 C2 C2 G4 :|2 z2 C4 G2- ||"^b" G2 G2 GFED | C2 G2 C4 | G8 |] %40
w: |ce, du|mal que jay|ce, di-|* gn'est de _ _ _|re- com- pen-|ce.|

